_includes/icons/color-java.svg

<svg fill="#666" height="50" viewBox="0 0 48 48" width="50" xmlns="http://www.w3.org/2000/svg"><path d="m23.648438 24.898438c-.996094-1.609375-1.71875-2.945313-2.722657-5.457032-1.695312-4.242187 10.3125-8.074218 5.445313-15.441406 2.109375 5.089844-7.578125 8.234375-8.476563 12.472656-.824218 3.898438 5.75 8.425782 5.753907 8.425782z" fill="#f44336"/><path d="m23.878906 17.269531c-.191406 2.515625 2.226563 3.859375 2.296875 5.695313.058594 1.496094-1.445312 2.742187-1.445312 2.742187s2.726562-.535156 3.578125-2.816406c.945312-2.535156-1.832031-4.269531-1.546875-6.296875.265625-1.941406 6.03125-5.542969 6.03125-5.542969s-8.480469.558594-8.914063 6.21875z" fill="#f44336"/><g fill="#1565c0"><path d="m32.085938 25.054688c1.753906-.394532 3.230468.722656 3.230468 2.011718 0 2.898438-4.019531 5.640625-4.019531 5.640625s6.222656-.742187 6.222656-5.503906c0-3.148437-3.054687-3.9375-5.433593-2.148437z"/><path d="m29.128906 27.394531s1.941407-1.382812 2.457032-1.902343c-4.761719 1.011718-15.636719 1.148437-15.636719.269531 0-.808594 3.507812-1.636719 3.507812-1.636719s-7.773437-.113281-7.773437 2.179688c0 2.390625 10.175781 2.5625 17.445312 1.089843z"/><path d="m27.933594 29.570313c-4.507813 1.5-12.8125 1.019531-10.351563-.992188-1.199218 0-2.976562.960938-2.976562 1.890625 0 1.855469 8.984375 3.289063 15.632812.570313z"/><path d="m18.6875 32.738281c-1.636719 0-2.695312 1.054688-2.695312 1.824219 0 2.390625 9.757812 2.628906 13.625.203125l-2.457032-1.632812c-2.890625 1.269531-10.144531 1.445312-8.472656-.394532z"/><path d="m36.28125 36.632813c0-.9375-1.054687-1.378907-1.433594-1.589844 2.226563 5.375-22.316406 4.957031-22.316406 1.785156 0-.722656 1.808594-1.425781 3.476563-1.09375l-1.417969-.839844c-3.328125-.519531-5.589844.941407-5.589844 2.121094 0 5.503906 27.28125 5.238281 27.28125-.382812z"/><path d="m39 38.605469c-4.144531 4.09375-14.660156 5.585937-25.230469 3.054687 10.570313 4.503907 25.179688 1.96875 25.230469-3.054687z"/></g></svg>

<svg xmlns="http://www.w3.org/2000/svg" viewBox="0 0 48 48" width="50" height="50" fill="#666"><path d="M 23.648438 24.898438 C 22.652344 23.289063 21.929688 21.953125 20.925781 19.441406 C 19.230469 15.199219 31.238281 11.367188 26.371094 4 C 28.480469 9.089844 18.792969 12.234375 17.894531 16.472656 C 17.070313 20.371094 23.644531 24.898438 23.648438 24.898438 Z" fill="#f44336"/><path d="M 23.878906 17.269531 C 23.6875 19.785156 26.105469 21.128906 26.175781 22.964844 C 26.234375 24.460938 24.730469 25.707031 24.730469 25.707031 C 24.730469 25.707031 27.457031 25.171875 28.308594 22.890625 C 29.253906 20.355469 26.476563 18.621094 26.761719 16.59375 C 27.027344 14.652344 32.792969 11.050781 32.792969 11.050781 C 32.792969 11.050781 24.3125 11.609375 23.878906 17.269531 Z" fill="#f44336"/><path d="M 32.085938 25.054688 C 33.839844 24.660156 35.316406 25.777344 35.316406 27.066406 C 35.316406 29.964844 31.296875 32.707031 31.296875 32.707031 C 31.296875 32.707031 37.519531 31.964844 37.519531 27.203125 C 37.519531 24.054688 34.464844 23.265625 32.085938 25.054688 Z" fill="#1565c0"/><path d="M 29.128906 27.394531 C 29.128906 27.394531 31.070313 26.011719 31.585938 25.492188 C 26.824219 26.503906 15.949219 26.640625 15.949219 25.761719 C 15.949219 24.953125 19.457031 24.125 19.457031 24.125 C 19.457031 24.125 11.683594 24.011719 11.683594 26.304688 C 11.683594 28.695313 21.859375 28.867188 29.128906 27.394531 Z" fill="#1565c0"/><path d="M 27.933594 29.570313 C 23.425781 31.070313 15.121094 30.589844 17.582031 28.578125 C 16.382813 28.578125 14.605469 29.539063 14.605469 30.46875 C 14.605469 32.324219 23.589844 33.757813 30.238281 31.039063 Z" fill="#1565c0"/><path d="M 18.6875 32.738281 C 17.050781 32.738281 15.992188 33.792969 15.992188 34.5625 C 15.992188 36.953125 25.75 37.191406 29.617188 34.765625 L 27.160156 33.132813 C 24.269531 34.402344 17.015625 34.578125 18.6875 32.738281 Z" fill="#1565c0"/><path d="M 36.28125 36.632813 C 36.28125 35.695313 35.226563 35.253906 34.847656 35.042969 C 37.074219 40.417969 12.53125 40 12.53125 36.828125 C 12.53125 36.105469 14.339844 35.402344 16.007813 35.734375 L 14.589844 34.894531 C 11.261719 34.375 9 35.835938 9 37.015625 C 9 42.519531 36.28125 42.253906 36.28125 36.632813 Z" fill="#1565c0"/><path d="M 39 38.605469 C 34.855469 42.699219 24.339844 44.191406 13.769531 41.660156 C 24.339844 46.164063 38.949219 43.628906 39 38.605469 Z" fill="#1565c0"/></svg>
